modules/feathericon/icons/crop.svg

<?xml version="1.0" encoding="UTF-8"?>
<svg width="24px" height="24px" viewBox="0 0 24 24" version="1.1" xmlns="http://www.w3.org/2000/svg" xmlns:xlink="http://www.w3.org/1999/xlink">
    <!-- Generator: sketchtool 52.2 (67145) - http://www.bohemiancoding.com/sketch -->
    <title>crop</title>
    <desc>Created with sketchtool.</desc>
    <g id="production" stroke="none" stroke-width="1" fill="none" fill-rule="evenodd">
        <g id="crop" fill="#000000">
            <path d="M16,20 L16,18 L8,18 C6.9000001,18 6,17.1000004 6,16 L6,8 L4,8 C3.44771525,8 3,7.55228475 3,7 C3,6.44771525 3.44771525,6 4,6 L6,6 L6,4 C6,3.44771525 6.44771525,3 7,3 C7.55228475,3 8,3.44771525 8,4 L8,6 L17,6 L19,4 L20,5 L18,7 L18,16 L20,16 C20.5522847,16 21,16.4477153 21,17 C21,17.5522847 20.5522847,18 20,18 L18,18 L18,20 C18,20.5522847 17.5522847,21 17,21 C16.4477153,21 16,20.5522847 16,20 Z M16,16 L16,9 L9,16 L16,16 Z M8,8 L8,15 L15,8 L8,8 Z" id="Shape"></path>
        </g>
    </g>
</svg>

<svg width="24" height="24" viewBox="0 0 24 24" xmlns="http://www.w3.org/2000/svg"><path d="M16 20v-2H8c-1.1 0-2-.9-2-2V8H4a1 1 0 1 1 0-2h2V4a1 1 0 1 1 2 0v2h9l2-2 1 1-2 2v9h2a1 1 0 0 1 0 2h-2v2a1 1 0 0 1-2 0zm0-4V9l-7 7h7zM8 8v7l7-7H8z" fill="#000" fill-rule="evenodd"/></svg>
